src/assets-svg/gift.svg

<svg width="17" height="17" viewBox="0 0 17 17" fill="none" xmlns="http://www.w3.org/2000/svg">
<path d="M11.3121 16.1143H5.64547C3.22297 16.1143 2.28088 15.1722 2.28088 12.7497V7.08301C2.28088 6.79259 2.52172 6.55176 2.81213 6.55176H14.1455C14.4359 6.55176 14.6767 6.79259 14.6767 7.08301V12.7497C14.6767 15.1722 13.7346 16.1143 11.3121 16.1143ZM3.34338 7.61426V12.7497C3.34338 14.5772 3.81797 15.0518 5.64547 15.0518H11.3121C13.1396 15.0518 13.6142 14.5772 13.6142 12.7497V7.61426H3.34338Z" fill="#6F757E"/>
<path d="M13.8125 7.61491H3.18754C1.94796 7.61491 1.23962 6.90658 1.23962 5.66699V4.95866C1.23962 3.71908 1.94796 3.01074 3.18754 3.01074H13.8125C15.0167 3.01074 15.7605 3.75449 15.7605 4.95866V5.66699C15.7605 6.87116 15.0167 7.61491 13.8125 7.61491ZM3.18754 4.07324C2.54296 4.07324 2.30212 4.31408 2.30212 4.95866V5.66699C2.30212 6.31158 2.54296 6.55241 3.18754 6.55241H13.8125C14.4359 6.55241 14.698 6.29033 14.698 5.66699V4.95866C14.698 4.33533 14.4359 4.07324 13.8125 4.07324H3.18754Z" fill="#6F757E"/>
<path d="M8.24503 4.07263H4.33503C4.18628 4.07263 4.04461 4.00888 3.94544 3.90263C3.51336 3.42805 3.52753 2.69846 3.98086 2.24513L4.98669 1.2393C5.45419 0.771797 6.22628 0.771797 6.69378 1.2393L8.62044 3.16596C8.76919 3.31471 8.81878 3.54846 8.73378 3.7468C8.65586 3.94513 8.46461 4.07263 8.24503 4.07263ZM4.72461 3.01013H6.97003L5.94294 1.99013C5.88628 1.93346 5.79419 1.93346 5.73753 1.99013L4.73169 2.99596C4.73169 3.00305 4.72461 3.00305 4.72461 3.01013Z" fill="#6F757E"/>
<path d="M12.658 4.07263H8.74798C8.53548 4.07263 8.33714 3.94513 8.25923 3.7468C8.17423 3.54846 8.22381 3.3218 8.37256 3.16596L10.2992 1.2393C10.7667 0.771797 11.5388 0.771797 12.0063 1.2393L13.0121 2.24513C13.4655 2.69846 13.4867 3.42805 13.0476 3.90263C12.9484 4.00888 12.8067 4.07263 12.658 4.07263ZM10.0371 3.01013H12.2826C12.2755 3.00305 12.2755 3.00305 12.2684 2.99596L11.2626 1.99013C11.2059 1.93346 11.1138 1.93346 11.0571 1.99013L10.0371 3.01013Z" fill="#6F757E"/>
<path d="M7.04085 11.9705C6.84252 11.9705 6.6371 11.9209 6.45294 11.8218C6.04919 11.6022 5.80127 11.1843 5.80127 10.7309V7.08301C5.80127 6.79259 6.0421 6.55176 6.33252 6.55176H10.6109C10.9013 6.55176 11.1421 6.79259 11.1421 7.08301V10.7168C11.1421 11.1772 10.8942 11.5951 10.4904 11.8076C10.0867 12.0272 9.59794 11.9988 9.21544 11.7438L8.58502 11.3188C8.52835 11.2763 8.45044 11.2763 8.38669 11.3188L7.72085 11.758C7.51544 11.8997 7.2746 11.9705 7.04085 11.9705ZM6.86377 7.61426V10.7238C6.86377 10.8159 6.92044 10.8584 6.95585 10.8797C6.99127 10.9009 7.0621 10.9222 7.14002 10.8726L7.80585 10.4334C8.22377 10.1572 8.7621 10.1572 9.17294 10.4334L9.80335 10.8584C9.88127 10.908 9.9521 10.8868 9.98752 10.8655C10.0229 10.8443 10.0796 10.8018 10.0796 10.7097V7.60717H6.86377V7.61426Z" fill="#6F757E"/>
</svg>

<svg width="17" height="17" fill="none" xmlns="http://www.w3.org/2000/svg"><path d="M11.312 16.114H5.645c-2.422 0-3.364-.942-3.364-3.364V7.083c0-.29.24-.531.531-.531h11.334c.29 0 .53.24.53.531v5.667c0 2.422-.941 3.364-3.364 3.364Zm-7.969-8.5v5.136c0 1.827.475 2.302 2.302 2.302h5.667c1.828 0 2.302-.475 2.302-2.302V7.614H3.344Z" fill="#6F757E"/><path d="M13.813 7.615H3.188c-1.24 0-1.948-.708-1.948-1.948v-.708c0-1.24.708-1.948 1.948-1.948h10.624c1.205 0 1.949.743 1.949 1.948v.708c0 1.204-.744 1.948-1.948 1.948ZM3.188 4.073c-.645 0-.886.241-.886.886v.708c0 .645.241.885.886.885h10.624c.624 0 .886-.262.886-.885v-.708c0-.624-.262-.886-.886-.886H3.188Z" fill="#6F757E"/><path d="M8.245 4.073h-3.91a.536.536 0 0 1-.39-.17 1.2 1.2 0 0 1 .036-1.658L4.987 1.24a1.214 1.214 0 0 1 1.707 0L8.62 3.166a.533.533 0 0 1-.375.907ZM4.725 3.01H6.97L5.943 1.99a.145.145 0 0 0-.205 0L4.732 2.996c0 .007-.007.007-.007.014Z" fill="#6F757E"/><path d="M12.658 4.073h-3.91a.525.525 0 0 1-.489-.326.536.536 0 0 1 .114-.581l1.926-1.927a1.214 1.214 0 0 1 1.707 0l1.006 1.006c.454.453.475 1.183.036 1.658-.1.106-.241.17-.39.17Zm-2.62-1.063h2.245l-.015-.014-1.005-1.006a.145.145 0 0 0-.206 0l-1.02 1.02ZM7.04 11.97a1.241 1.241 0 0 1-1.24-1.24V7.084c.001-.29.242-.531.533-.531h4.278c.29 0 .531.24.531.531v3.634c0 .46-.248.878-.652 1.09-.403.22-.892.192-1.275-.063l-.63-.425a.17.17 0 0 0-.198 0l-.666.439a1.204 1.204 0 0 1-.68.213Zm-.176-4.356v3.11c0 .092.056.134.092.156a.172.172 0 0 0 .184-.007l.666-.44a1.231 1.231 0 0 1 1.367 0l.63.425c.078.05.15.029.185.008a.172.172 0 0 0 .092-.156V7.607H6.864v.007Z" fill="#6F757E"/></svg>
